;FLAVOR:UltiGCode
;TIME:149
;MATERIAL:223
;MATERIAL2:0

;Layer count: 10
;LAYER:0
M107
G0 F9000 X106.866 Y104.301 Z0.300
;TYPE:SKIRT
G1 F1200 X107.607 Y103.623 E0.12052
G1 X108.241 Y103.131 E0.21683
G1 X109.081 Y102.583 E0.33718
G1 X110.073 Y102.048 E0.47243
G1 X111.044 Y101.650 E0.59836
G1 X112.116 Y101.311 E0.73328
G1 X113.145 Y101.101 E0.85930
G1 X114.227 Y100.972 E0.99006
G1 X115.035 Y100.947 E1.08707
G1 X116.041 Y100.996 E1.20793
G1 X117.158 Y101.148 E1.34320
G1 X118.177 Y101.396 E1.46905
G1 X119.245 Y101.754 E1.60422
G1 X120.200 Y102.187 E1.73005
G1 X121.184 Y102.739 E1.86544
G1 X122.040 Y103.345 E1.99130
G1 X122.910 Y104.076 E2.12766
G1 X123.694 Y104.897 E2.26388
G1 X124.354 Y105.716 E2.39010
G1 X124.965 Y106.661 E2.52514
G1 X125.459 Y107.589 E2.65130
G1 X125.882 Y108.632 E2.78636
G1 X126.180 Y109.590 E2.90675
G1 X126.357 Y110.379 E3.00379
G1 X126.502 Y111.458 E3.13443
G1 X126.553 Y112.462 E3.25506
G1 X126.529 Y113.227 E3.34691
G1 X126.456 Y113.995 E3.43949
G1 X126.261 Y115.064 E3.56988
G1 X125.986 Y116.080 E3.69619
G1 X125.581 Y117.128 E3.83101
G1 X125.122 Y118.074 E3.95719
G1 X124.526 Y119.030 E4.09238
G1 X123.897 Y119.872 E4.21850
G1 X123.134 Y120.699 E4.35352
G1 X122.393 Y121.377 E4.47405
G1 X121.759 Y121.869 E4.57035
G1 X120.919 Y122.417 E4.69070
G1 X119.927 Y122.952 E4.82595
G1 X118.956 Y123.350 E4.95188
G1 X117.884 Y123.689 E5.08680
G1 X116.855 Y123.899 E5.21282
G1 X115.773 Y124.028 E5.34358
G1 X114.965 Y124.053 E5.44059
G1 X113.959 Y124.004 E5.56145
G1 X112.842 Y123.852 E5.69673
G1 X111.823 Y123.604 E5.82258
G1 X110.755 Y123.246 E5.95775
G1 X109.800 Y122.813 E6.08358
G1 X108.816 Y122.261 E6.21897
G1 X107.960 Y121.655 E6.34482
G1 X107.090 Y120.924 E6.48118
G1 X106.306 Y120.103 E6.61741
G1 X105.646 Y119.284 E6.74363
G1 X105.035 Y118.339 E6.87867
G1 X104.541 Y117.411 E7.00482
G1 X104.118 Y116.368 E7.13988
G1 X103.820 Y115.410 E7.26028
G1 X103.643 Y114.621 E7.35731
G1 X103.498 Y113.542 E7.48795
G1 X103.447 Y112.538 E7.60859
G1 X103.471 Y111.773 E7.70043
G1 X103.544 Y111.005 E7.79301
G1 X103.739 Y109.936 E7.92341
G1 X104.014 Y108.920 E8.04971
G1 X104.419 Y107.872 E8.18454
G1 X104.878 Y106.926 E8.31071
G1 X105.474 Y105.970 E8.44590
G1 X106.103 Y105.128 E8.57202
G1 X106.866 Y104.301 E8.70705
G0 F9000 X107.149 Y104.585
G1 F1200 X107.865 Y103.929 E8.82358
G1 X108.473 Y103.457 E8.91594
G1 X109.285 Y102.928 E9.03224
G1 X110.244 Y102.410 E9.16303
G1 X111.181 Y102.026 E9.28455
G1 X112.217 Y101.699 E9.41491
G1 X113.208 Y101.496 E9.53630
G1 X114.257 Y101.372 E9.66306
G1 X115.031 Y101.347 E9.75599
G1 X116.004 Y101.395 E9.87289
G1 X117.084 Y101.542 E10.00368
G1 X118.066 Y101.781 E10.12496
G1 X119.098 Y102.126 E10.25554
G1 X120.019 Y102.545 E10.37696
G1 X120.970 Y103.078 E10.50778
G1 X121.796 Y103.662 E10.62917
G1 X122.636 Y104.368 E10.76085
G1 X123.393 Y105.161 E10.89240
G1 X124.029 Y105.951 E11.01411
G1 X124.620 Y106.864 E11.14462
G1 X125.097 Y107.759 E11.26632
G1 X125.505 Y108.767 E11.39681
G1 X125.793 Y109.693 E11.51318
G1 X125.963 Y110.450 E11.60629
G1 X126.104 Y111.495 E11.73282
G1 X126.153 Y112.466 E11.84949
G1 X126.130 Y113.202 E11.93785
G1 X126.059 Y113.940 E12.02682
G1 X125.871 Y114.976 E12.15317
G1 X125.606 Y115.955 E12.27488
G1 X125.214 Y116.969 E12.40534
G1 X124.772 Y117.880 E12.52684
G1 X124.195 Y118.805 E12.65767
G1 X123.589 Y119.616 E12.77916
G1 X122.851 Y120.415 E12.90968
G1 X122.135 Y121.071 E13.02621
G1 X121.527 Y121.543 E13.11857
G1 X120.715 Y122.072 E13.23487
G1 X119.756 Y122.590 E13.36566
G1 X118.819 Y122.974 E13.48718
G1 X117.783 Y123.301 E13.61754
G1 X116.792 Y123.504 E13.73893
G1 X115.743 Y123.628 E13.86569
G1 X114.969 Y123.653 E13.95862
G1 X113.996 Y123.605 E14.07552
G1 X112.916 Y123.458 E14.20631
G1 X111.934 Y123.219 E14.32759
G1 X110.902 Y122.874 E14.45817
G1 X109.981 Y122.455 E14.57959
G1 X109.030 Y121.922 E14.71041
G1 X108.204 Y121.338 E14.83180
G1 X107.364 Y120.632 E14.96348
G1 X106.607 Y119.839 E15.09504
G1 X105.971 Y119.049 E15.21674
G1 X105.380 Y118.136 E15.34725
G1 X104.903 Y117.241 E15.46895
G1 X104.495 Y116.233 E15.59944
G1 X104.207 Y115.307 E15.71581
G1 X104.037 Y114.550 E15.80892
G1 X103.896 Y113.505 E15.93545
G1 X103.847 Y112.534 E16.05212
G1 X103.870 Y111.798 E16.14048
G1 X103.941 Y111.060 E16.22945
G1 X104.129 Y110.024 E16.35580
G1 X104.394 Y109.045 E16.47751
G1 X104.786 Y108.031 E16.60797
G1 X105.228 Y107.120 E16.72948
G1 X105.805 Y106.195 E16.86030
G1 X106.411 Y105.384 E16.98179
G1 X107.149 Y104.585 E17.11231
G0 F9000 X107.431 Y104.868
G1 F1200 X108.123 Y104.235 E17.22485
G1 X108.705 Y103.783 E17.31328
G1 X109.490 Y103.272 E17.42568
G1 X110.416 Y102.772 E17.55196
G1 X111.317 Y102.403 E17.66880
G1 X112.318 Y102.087 E17.79476
G1 X113.272 Y101.891 E17.91163
G1 X114.287 Y101.771 E18.03428
G1 X115.028 Y101.748 E18.12325
G1 X115.967 Y101.794 E18.23606
G1 X117.009 Y101.936 E18.36226
G1 X117.955 Y102.166 E18.47908
G1 X118.952 Y102.499 E18.60522
G1 X119.838 Y102.902 E18.72202
G1 X120.756 Y103.417 E18.84833
G1 X121.551 Y103.979 E18.96516
G1 X122.361 Y104.660 E19.09215
G1 X123.092 Y105.425 E19.21912
G1 X123.705 Y106.185 E19.33629
G1 X124.275 Y107.067 E19.46231
G1 X124.734 Y107.929 E19.57950
G1 X125.128 Y108.901 E19.70536
G1 X125.406 Y109.796 E19.81782
G1 X125.569 Y110.520 E19.90688
G1 X125.705 Y111.532 E20.02941
G1 X125.753 Y112.470 E20.14212
G1 X125.730 Y113.177 E20.22700
G1 X125.663 Y113.885 E20.31234
G1 X125.480 Y114.887 E20.43457
G1 X125.225 Y115.831 E20.55191
G1 X124.847 Y116.809 E20.67773
G1 X124.421 Y117.686 E20.79473
G1 X123.865 Y118.579 E20.92096
G1 X123.281 Y119.360 E21.03799
G1 X122.569 Y120.132 E21.16401
G1 X121.877 Y120.765 E21.27655
G1 X121.295 Y121.217 E21.36498
G1 X120.510 Y121.728 E21.47738
G1 X119.584 Y122.228 E21.60366
G1 X118.683 Y122.597 E21.72050
G1 X117.682 Y122.913 E21.84646
G1 X116.728 Y123.109 E21.96334
G1 X115.713 Y123.229 E22.08598
G1 X114.972 Y123.252 E22.17495
G1 X114.033 Y123.206 E22.28776
G1 X112.991 Y123.064 E22.41396
G1 X112.045 Y122.834 E22.53078
G1 X111.048 Y122.501 E22.65692
G1 X110.162 Y122.098 E22.77372
G1 X109.244 Y121.583 E22.90003
G1 X108.449 Y121.021 E23.01686
G1 X107.639 Y120.340 E23.14385
G1 X106.908 Y119.575 E23.27082
G1 X106.295 Y118.815 E23.38799
G1 X105.725 Y117.933 E23.51401
G1 X105.266 Y117.071 E23.63120
G1 X104.872 Y116.099 E23.75706
G1 X104.594 Y115.204 E23.86952
G1 X104.431 Y114.480 E23.95858
G1 X104.295 Y113.468 E24.08111
G1 X104.247 Y112.530 E24.19382
G1 X104.270 Y111.823 E24.27870
G1 X104.337 Y111.115 E24.36404
G1 X104.520 Y110.113 E24.48627
G1 X104.775 Y109.169 E24.60361
G1 X105.153 Y108.191 E24.72943
G1 X105.579 Y107.314 E24.84643
G1 X106.135 Y106.421 E24.97266
G1 X106.719 Y105.640 E25.08969
G1 X107.431 Y104.868 E25.21571
G10
G0 F9000 X110.402 Y107.843
;TYPE:WALL-INNER
G11
G1 F1200 X110.835 Y107.447 E25.28612
G1 X111.141 Y107.209 E25.33264
G1 X111.639 Y106.884 E25.40400
G1 X112.217 Y106.573 E25.48277
G1 X112.741 Y106.358 E25.55073
G1 X113.374 Y106.158 E25.63039
G1 X113.948 Y106.040 E25.70072
G1 X114.605 Y105.963 E25.78009
G1 X114.983 Y105.951 E25.82548
G1 X115.580 Y105.980 E25.89720
G1 X116.227 Y106.068 E25.97556
G1 X116.798 Y106.207 E26.04608
G1 X117.411 Y106.412 E26.12364
G1 X117.939 Y106.652 E26.19324
G1 X118.507 Y106.970 E26.27136
G1 X118.985 Y107.308 E26.34161
G1 X119.482 Y107.726 E26.41954
G1 X119.934 Y108.199 E26.49805
G1 X120.295 Y108.648 E26.56718
G1 X120.651 Y109.198 E26.64580
G1 X120.923 Y109.710 E26.71537
G1 X121.170 Y110.318 E26.79412
G1 X121.344 Y110.880 E26.86472
G1 X121.431 Y111.266 E26.91220
G1 X121.519 Y111.917 E26.99103
G1 X121.549 Y112.518 E27.06324
G1 X121.500 Y113.301 E27.15739
G1 X121.379 Y113.967 E27.23862
G1 X121.231 Y114.515 E27.30673
G1 X120.990 Y115.136 E27.38667
G1 X120.741 Y115.650 E27.45520
G1 X120.389 Y116.215 E27.53508
G1 X120.053 Y116.664 E27.60238
G1 X119.598 Y117.157 E27.68289
G1 X119.165 Y117.553 E27.75330
G1 X118.859 Y117.791 E27.79982
G1 X118.361 Y118.116 E27.87118
G1 X117.783 Y118.427 E27.94994
G1 X117.259 Y118.642 E28.01791
G1 X116.626 Y118.842 E28.09757
G1 X116.052 Y118.960 E28.16789
G1 X115.395 Y119.037 E28.24727
G1 X115.017 Y119.049 E28.29265
G1 X114.420 Y119.020 E28.36438
G1 X113.773 Y118.932 E28.44273
G1 X113.202 Y118.793 E28.51325
G1 X112.589 Y118.588 E28.59082
G1 X112.061 Y118.348 E28.66042
G1 X111.493 Y118.030 E28.73853
G1 X111.015 Y117.692 E28.80878
G1 X110.518 Y117.274 E28.88671
G1 X110.066 Y116.801 E28.96522
G1 X109.705 Y116.352 E29.03436
G1 X109.349 Y115.802 E29.11297
G1 X109.077 Y115.290 E29.18255
G1 X108.830 Y114.682 E29.26130
G1 X108.656 Y114.120 E29.33190
G1 X108.569 Y113.734 E29.37938
G1 X108.481 Y113.083 E29.45821
G1 X108.451 Y112.482 E29.53042
G1 X108.500 Y111.699 E29.62456
G1 X108.623 Y111.026 E29.70666
G1 X108.769 Y110.485 E29.77390
G1 X109.010 Y109.864 E29.85384
G1 X109.259 Y109.350 E29.92237
G1 X109.611 Y108.785 E30.00225
G1 X109.947 Y108.336 E30.06955
G1 X110.402 Y107.843 E30.15006
G0 F9000 X113.091 Y110.880
G1 F1200 X112.869 Y111.186 E30.19542
G1 X112.622 Y111.711 E30.26505
G1 X112.519 Y112.171 E30.32161
G1 X112.498 Y112.500 E30.36117
G1 X112.521 Y112.861 E30.40458
G1 X112.718 Y113.539 E30.48931
G1 X112.976 Y113.974 E30.55000
G1 X113.308 Y114.347 E30.60992
G1 X113.780 Y114.686 E30.67965
G1 X114.106 Y114.836 E30.72272
G1 X114.500 Y114.951 E30.77197
G1 X114.703 Y114.983 E30.79663
G1 X115.013 Y115.002 E30.83390
G1 X115.345 Y114.979 E30.87383
G1 X115.819 Y114.869 E30.93223
G1 X116.463 Y114.538 E31.01912
G1 X116.909 Y114.120 E31.09247
G1 X117.131 Y113.814 E31.13783
G1 X117.378 Y113.289 E31.20746
G1 X117.481 Y112.829 E31.26402
G1 X117.502 Y112.500 E31.30358
G1 X117.479 Y112.139 E31.34699
G1 X117.282 Y111.461 E31.43172
G1 X117.024 Y111.026 E31.49241
G1 X116.692 Y110.653 E31.55233
G1 X116.220 Y110.314 E31.62207
G1 X115.894 Y110.164 E31.66513
G1 X115.500 Y110.049 E31.71438
G1 X115.297 Y110.017 E31.73904
G1 X114.987 Y109.998 E31.77631
G1 X114.655 Y110.021 E31.81625
G1 X114.181 Y110.131 E31.87464
G1 X113.537 Y110.462 E31.96153
G1 X113.091 Y110.880 E32.03488
G0 F9000 X113.393 Y111.145
G1 F1200 X113.215 Y111.390 E32.07122
G1 X113.003 Y111.841 E32.13102
G1 X112.916 Y112.228 E32.17862
G1 X112.899 Y112.500 E32.21132
G1 X112.917 Y112.791 E32.24631
G1 X113.088 Y113.378 E32.31968
G1 X113.300 Y113.737 E32.36971
G1 X113.577 Y114.048 E32.41969
G1 X113.982 Y114.339 E32.47953
G1 X114.246 Y114.461 E32.51443
G1 X114.588 Y114.560 E32.55715
G1 X115.011 Y114.601 E32.60815
G1 X115.285 Y114.582 E32.64111
G1 X115.680 Y114.491 E32.68975
G1 X116.230 Y114.208 E32.76398
G1 X116.607 Y113.855 E32.82595
G1 X116.785 Y113.610 E32.86229
G1 X116.997 Y113.159 E32.92209
G1 X117.084 Y112.772 E32.96969
G1 X117.101 Y112.500 E33.00240
G1 X117.083 Y112.209 E33.03738
G1 X116.912 Y111.622 E33.11075
G1 X116.700 Y111.263 E33.16078
G1 X116.423 Y110.952 E33.21076
G1 X116.018 Y110.661 E33.27060
G1 X115.754 Y110.539 E33.30550
G1 X115.412 Y110.440 E33.34823
G1 X114.989 Y110.399 E33.39923
G1 X114.715 Y110.418 E33.43219
G1 X114.320 Y110.509 E33.48083
G1 X113.770 Y110.792 E33.55505
G1 X113.393 Y111.145 E33.61703
G0 F9000 X110.114 Y107.565
G1 F1200 X110.580 Y107.138 E33.69287
G1 X110.907 Y106.884 E33.74256
G1 X111.438 Y106.538 E33.81861
G1 X112.043 Y106.212 E33.90108
G1 X112.613 Y105.978 E33.97502
G1 X113.272 Y105.770 E34.05795
G1 X113.878 Y105.646 E34.13217
G1 X114.568 Y105.564 E34.21556
G1 X115.002 Y105.551 E34.26766
G1 X115.608 Y105.580 E34.34046
G1 X116.307 Y105.675 E34.42512
G1 X116.903 Y105.821 E34.49875
G1 X117.561 Y106.041 E34.58201
G1 X118.117 Y106.293 E34.65526
G1 X118.725 Y106.635 E34.73897
G1 X119.228 Y106.990 E34.81285
G1 X119.752 Y107.430 E34.89496
G1 X120.241 Y107.942 E34.97992
G1 X120.617 Y108.410 E35.05196
G1 X120.995 Y108.995 E35.13554
G1 X121.289 Y109.545 E35.21037
G1 X121.546 Y110.179 E35.29247
G1 X121.734 Y110.784 E35.36849
G1 X121.823 Y111.182 E35.41743
G1 X121.919 Y111.890 E35.50317
G1 X121.949 Y112.499 E35.57634
G1 X121.895 Y113.365 E35.68046
G1 X121.771 Y114.046 E35.76352
G1 X121.610 Y114.643 E35.83772
G1 X121.359 Y115.291 E35.92111
G1 X121.088 Y115.851 E35.99577
G1 X120.728 Y116.428 E36.07738
G1 X120.354 Y116.929 E36.15240
G1 X119.886 Y117.435 E36.23511
G1 X119.423 Y117.859 E36.31045
G1 X119.093 Y118.116 E36.36064
G1 X118.562 Y118.462 E36.43670
G1 X117.957 Y118.788 E36.51916
G1 X117.387 Y119.022 E36.59310
G1 X116.728 Y119.230 E36.67603
G1 X116.122 Y119.354 E36.75026
G1 X115.432 Y119.436 E36.83364
G1 X114.998 Y119.449 E36.88574
G1 X114.392 Y119.420 E36.95855
G1 X113.693 Y119.325 E37.04320
G1 X113.097 Y119.179 E37.11683
G1 X112.439 Y118.959 E37.20009
G1 X111.883 Y118.707 E37.27334
G1 X111.275 Y118.365 E37.35705
G1 X110.772 Y118.010 E37.43093
G1 X110.248 Y117.570 E37.51304
G1 X109.759 Y117.058 E37.59800
G1 X109.383 Y116.590 E37.67004
G1 X109.005 Y116.005 E37.75362
G1 X108.711 Y115.455 E37.82846
G1 X108.454 Y114.821 E37.91055
G1 X108.264 Y114.208 E37.98756
G1 X108.177 Y113.818 E38.03551
G1 X108.081 Y113.110 E38.12125
G1 X108.051 Y112.500 E38.19454
G1 X108.105 Y111.635 E38.29854
G1 X108.229 Y110.952 E38.38184
G1 X108.390 Y110.357 E38.45581
G1 X108.641 Y109.709 E38.53920
G1 X108.912 Y109.149 E38.61385
G1 X109.272 Y108.572 E38.69546
G1 X109.646 Y108.071 E38.77049
G1 X110.114 Y107.565 E38.85320
G0 F9000 X109.832 Y107.281
;TYPE:WALL-OUTER
G1 F1200 X110.318 Y106.836 E38.93227
G1 X110.679 Y106.555 E38.98717
G1 X111.231 Y106.196 E39.06618
G1 X111.872 Y105.850 E39.15360
G1 X112.474 Y105.603 E39.23168
G1 X113.175 Y105.382 E39.31988
G1 X113.811 Y105.251 E39.39780
G1 X114.544 Y105.165 E39.48637
G1 X114.996 Y105.150 E39.54064
G1 X115.658 Y105.183 E39.62017
G1 X116.379 Y105.281 E39.70749
G1 X117.005 Y105.433 E39.78479
G1 X117.707 Y105.668 E39.87363
G1 X118.304 Y105.939 E39.95230
G1 X118.940 Y106.296 E40.03982
G1 X119.465 Y106.667 E40.11697
G1 X120.030 Y107.143 E40.20562
G1 X120.537 Y107.672 E40.29355
G1 X120.944 Y108.178 E40.37147
G1 X121.340 Y108.791 E40.45905
G1 X121.654 Y109.380 E40.53914
G1 X121.921 Y110.038 E40.62436
G1 X122.119 Y110.675 E40.70440
G1 X122.219 Y111.122 E40.75937
G1 X122.316 Y111.837 E40.84596
G1 X122.350 Y112.504 E40.92610
G1 X122.293 Y113.410 E41.03504
G1 X122.160 Y114.142 E41.12431
G1 X121.991 Y114.766 E41.20189
G1 X121.724 Y115.456 E41.29067
G1 X121.442 Y116.037 E41.36817
G1 X121.052 Y116.662 E41.45658
G1 X120.664 Y117.182 E41.53443
G1 X120.168 Y117.719 E41.62215
G1 X119.682 Y118.164 E41.70123
G1 X119.321 Y118.445 E41.75613
G1 X118.769 Y118.804 E41.83514
G1 X118.128 Y119.150 E41.92255
G1 X117.526 Y119.397 E42.00064
G1 X116.825 Y119.618 E42.08884
G1 X116.189 Y119.749 E42.16676
G1 X115.456 Y119.835 E42.25532
G1 X115.004 Y119.850 E42.30959
G1 X114.342 Y119.817 E42.38913
G1 X113.621 Y119.719 E42.47645
G1 X112.994 Y119.567 E42.55387
G1 X112.293 Y119.332 E42.64259
G1 X111.696 Y119.061 E42.72126
G1 X111.060 Y118.704 E42.80879
G1 X110.534 Y118.332 E42.88610
G1 X109.970 Y117.857 E42.97458
G1 X109.463 Y117.328 E43.06251
G1 X109.056 Y116.822 E43.14043
G1 X108.660 Y116.209 E43.22801
G1 X108.346 Y115.620 E43.30810
G1 X108.077 Y114.957 E43.39396
G1 X107.881 Y114.325 E43.47337
G1 X107.781 Y113.878 E43.52833
G1 X107.684 Y113.160 E43.61527
G1 X107.650 Y112.494 E43.69530
G1 X107.707 Y111.590 E43.80399
G1 X107.841 Y110.854 E43.89377
G1 X108.009 Y110.234 E43.97085
G1 X108.277 Y109.541 E44.06001
G1 X108.558 Y108.963 E44.13713
G1 X108.950 Y108.334 E44.22607
G1 X109.336 Y107.818 E44.30340
G1 X109.832 Y107.281 E44.39112
G0 F9000 X110.047 Y107.489
G0 X113.452 Y111.235
G0 X113.694 Y111.411
G1 F1200 X113.561 Y111.595 E44.41837
G1 X113.384 Y111.972 E44.46834
G1 X113.313 Y112.285 E44.50686
G1 X113.300 Y112.500 E44.53270
G1 X113.314 Y112.722 E44.55940
G1 X113.458 Y113.218 E44.62138
G1 X113.625 Y113.500 E44.66070
G1 X113.846 Y113.749 E44.70066
G1 X114.185 Y113.992 E44.75071
G1 X114.387 Y114.085 E44.77739
G1 X114.675 Y114.169 E44.81339
G1 X115.010 Y114.200 E44.85376
G1 X115.226 Y114.185 E44.87975
G1 X115.541 Y114.112 E44.91855
G1 X115.997 Y113.878 E44.98005
G1 X116.306 Y113.589 E45.03082
G1 X116.439 Y113.405 E45.05807
G1 X116.616 Y113.028 E45.10805
G1 X116.687 Y112.715 E45.14656
G1 X116.700 Y112.500 E45.17241
G1 X116.686 Y112.278 E45.19910
G1 X116.542 Y111.782 E45.26108
G1 X116.375 Y111.500 E45.30041
